polaris-icons/icons/new-icons/WearableMajor.svg

<svg width="20" height="20" viewBox="0 0 20 20" fill="none" xmlns="http://www.w3.org/2000/svg">
<path d="M10.75 8.75C10.75 8.33579 10.4142 8 9.99999 8C9.58578 8 9.24999 8.33579 9.24999 8.75L9.24999 10C9.24999 10.1989 9.32901 10.3897 9.46966 10.5303L10.7197 11.7803C11.0126 12.0732 11.4874 12.0732 11.7803 11.7803C12.0732 11.4874 12.0732 11.0126 11.7803 10.7197L10.75 9.68934L10.75 8.75Z" fill="#4A4A4A"/>
<path fill-rule="evenodd" clip-rule="evenodd" d="M9 3C8.0335 3 7.25 3.7835 7.25 4.75V5.68252C6.06055 6.31127 5.25 7.56098 5.25 9V11C5.25 12.439 6.06055 13.6887 7.25 14.3175V15.25C7.25 16.2165 8.0335 17 9 17H11C11.9665 17 12.75 16.2165 12.75 15.25V14.3175C13.9395 13.6887 14.75 12.439 14.75 11V9C14.75 7.56098 13.9395 6.31127 12.75 5.68252V4.75C12.75 3.7835 11.9665 3 11 3H9ZM9 5.25C8.91599 5.25 8.83263 5.25276 8.75 5.2582V4.75C8.75 4.61193 8.86193 4.5 9 4.5H11C11.1381 4.5 11.25 4.61193 11.25 4.75V5.2582C11.1674 5.25276 11.084 5.25 11 5.25H9ZM8.75 15.25V14.7418C8.83263 14.7472 8.91599 14.75 9 14.75H11C11.084 14.75 11.1674 14.7472 11.25 14.7418V15.25C11.25 15.3881 11.1381 15.5 11 15.5H9C8.86193 15.5 8.75 15.3881 8.75 15.25ZM9 6.75C7.75736 6.75 6.75 7.75736 6.75 9V11C6.75 12.2426 7.75736 13.25 9 13.25H11C12.2426 13.25 13.25 12.2426 13.25 11V9C13.25 7.75736 12.2426 6.75 11 6.75H9Z" fill="#4A4A4A"/>
</svg>

<svg viewBox="0 0 20 20" xmlns="http://www.w3.org/2000/svg"><path d="M10.75 8.75a.75.75 0 0 0-1.5 0v1.25c0 .199.079.39.22.53l1.25 1.25a.75.75 0 1 0 1.06-1.06l-1.03-1.03v-.94Z" fill="#5C5F62"/><path fill-rule="evenodd" d="M9 3a1.75 1.75 0 0 0-1.75 1.75v.933a3.75 3.75 0 0 0-2 3.317v2a3.75 3.75 0 0 0 2 3.318v.932c0 .966.784 1.75 1.75 1.75h2a1.75 1.75 0 0 0 1.75-1.75v-.932a3.75 3.75 0 0 0 2-3.318v-2a3.75 3.75 0 0 0-2-3.317v-.933a1.75 1.75 0 0 0-1.75-1.75h-2Zm0 2.25c-.084 0-.167.003-.25.008v-.508a.25.25 0 0 1 .25-.25h2a.25.25 0 0 1 .25.25v.508a3.805 3.805 0 0 0-.25-.008h-2Zm-.25 10v-.508c.083.005.166.008.25.008h2c.084 0 .167-.003.25-.008v.508a.25.25 0 0 1-.25.25h-2a.25.25 0 0 1-.25-.25Zm.25-8.5a2.25 2.25 0 0 0-2.25 2.25v2a2.25 2.25 0 0 0 2.25 2.25h2a2.25 2.25 0 0 0 2.25-2.25v-2a2.25 2.25 0 0 0-2.25-2.25h-2Z" fill="#5C5F62"/></svg>
